X:157
T:Jackson's No. 1
Z: id:dc-reel-144
M:C
L:1/8
K:D Major
A,|D2FD EDFE|DEFD EA,A,2|CEE2 GBed|cABc dBAF|!
D2FD EDFE|DEFD EA,A,2|CEE2 GBed|cAGE D3:|!
e|fddc dfaf|e2ce fece|A2cA BAcB|ABcA Bcde|!
fddc dfaf|e2ce fece|A2ce faeg|fddc d3:|!
B|A3B AFF2|F2AF GFED|EDEF GFEF|GBed cAGE|!
D2FD EDFE|DEFD EA,A,2|CEE2 GBed|cAGE D3|]!

